src/img/twitter.svg

<svg width="20" height="16" xmlns="http://www.w3.org/2000/svg"><path d="M17.316 4.246c.008.162.011.326.011.488 0 4.99-3.797 10.742-10.74 10.742-2.133 0-4.116-.625-5.787-1.697a7.577 7.577 0 005.588-1.562 3.779 3.779 0 01-3.526-2.621 3.858 3.858 0 001.705-.065 3.779 3.779 0 01-3.028-3.703v-.047a3.766 3.766 0 001.71.473 3.775 3.775 0 01-1.168-5.041 10.716 10.716 0 007.781 3.945 3.813 3.813 0 01-.097-.861A3.773 3.773 0 0113.539.524a3.77 3.77 0 012.756 1.191 7.602 7.602 0 002.397-.916 3.789 3.789 0 01-1.66 2.088 7.55 7.55 0 002.168-.594 7.623 7.623 0 01-1.884 1.953z" fill="#5C9901"/></svg>

<svg width="20" height="16" viewBox="0 0 20 16" version="1.1" xmlns="http://www.w3.org/2000/svg" xmlns:xlink="http://www.w3.org/1999/xlink"><title>twitter</title><desc>Created with Sketch.</desc><g id="Page-1" stroke="none" stroke-width="1" fill="none" fill-rule="evenodd"><g id="twitter" fill-rule="nonzero" fill="#5C9901"><path d="M17.316,4.246 C17.324,4.408 17.327,4.572 17.327,4.734 C17.327,9.724 13.53,15.476 6.587,15.476 C4.454,15.476 2.471,14.851 0.8,13.779 C1.096,13.814 1.396,13.832 1.7,13.832 C3.47,13.832 5.097,13.228 6.388,12.217 C4.737,12.186 3.342,11.096 2.862,9.596 C3.092,9.639 3.329,9.662 3.572,9.662 C3.917,9.662 4.251,9.617 4.567,9.531 C2.84,9.183 1.539,7.658 1.539,5.828 L1.539,5.781 C2.048,6.064 2.631,6.234 3.249,6.254 C2.236,5.576 1.569,4.422 1.569,3.111 C1.569,2.42 1.755,1.771 2.081,1.213 C3.942,3.498 6.725,5 9.862,5.158 C9.798,4.881 9.765,4.594 9.765,4.297 C9.765,2.213 11.454,0.524 13.539,0.524 C14.625,0.524 15.606,0.981 16.295,1.715 C17.154,1.545 17.962,1.231 18.692,0.799 C18.41,1.68 17.811,2.42 17.032,2.887 C17.796,2.795 18.522,2.594 19.2,2.293 C18.694,3.051 18.054,3.715 17.316,4.246 Z" id="Shape"/></g></g></svg>
